X:5
T:Jimmy Lyons' Strathspey
R:strathspey
D:Altan: Altan
Z:id:hn-strathspey-5
M:C
K:A
A>ag>a e<Ac>A|F>Ad>c B>EG>B|A>ag>a e<Ac>A|1 F>AG>B c<AA>G:|2 F>AG>B c<A (3agf||
|:e<cc>e f<dd>e|d>B^d>f g<ee>f|e<cc>e f>df>a|1 (3gfe (3dcB (3Ace (3agf:|
[2 (3gbg (3efg a>Ac>B||

